X:7180
T:The Parker Twins
R:reel
C:Dougie MacDonald
N:Bookings,Mechanicals etc.
N:..... Dougie MacDonald <dougie@cranfordpub.com>
N:More tunes and information <http://www.cranfordpub.com/dougie>
Q:333
O:England
L:1/8
M:C|
K:D
zA,|DA,DF EA,CE|(3(FED) AF dc=c_B|BDGB ADFA|(3(GFE) (3(FED) CEA,C|
DA,A,E A,A,CE|(3(FED) AF dc=c_B|BcdB AFDF|EA,CE D2:|
c_B|BDGB edcB|ADFA d2 AF|GFEG FEDF|EA,CE AGF_B|
BDGB edcB|ADFA d2 AF|GFEG FEDF|EA,CE D2 _B z|
BDGB edcB|ADFA d2 AF|GEEF A,A,DF|EA,CE AGFE|
DA,DF EA,CE|(3(FED) AF dc=c_B|BDGB ADFA|EA,CE D2:|


